src/app/assets/svg/polygon.svg

<svg width="40" height="44" viewBox="0 0 40 44"  xmlns="http://www.w3.org/2000/svg">
<path d="M17 1.73205C18.8564 0.660254 21.1436 0.660254 23 1.73205L36.0526 9.26795C37.909 10.3397 39.0526 12.3205 39.0526 14.4641V29.5359C39.0526 31.6795 37.909 33.6603 36.0526 34.7321L23 42.2679C21.1436 43.3397 18.8564 43.3397 17 42.2679L3.94744 34.7321C2.09104 33.6603 0.947441 31.6795 0.947441 29.5359V14.4641C0.947441 12.3205 2.09103 10.3397 3.94744 9.26795L17 1.73205Z" fill="transparent" stroke="currentColor"/>
</svg>

<svg width="40" height="44" viewBox="0 0 40 44" xmlns="http://www.w3.org/2000/svg"><path d="M17 1.732a6 6 0 0 1 6 0l13.053 7.536a6 6 0 0 1 3 5.196v15.072a6 6 0 0 1-3 5.196L23 42.268a6 6 0 0 1-6 0L3.947 34.732a6 6 0 0 1-3-5.196V14.464a6 6 0 0 1 3-5.196L17 1.732z" fill="transparent" stroke="currentColor"/></svg>
